X:1
T:Hot Chicken
T:Eric Andre
%%score 1 2 ( 3 4 )
L:1/8
Q:1/4=90
M:4/4
K:C
V:1 treble transpose=24 nm="Glockenspiel" snm="Glock."
V:2 treble-8 nm="Classical Guitar" snm="Guit."
V:3 perc nm="Drumset" snm="D. Set"
K:none
I:percmap c c 38 normal
V:4 perc 
K:none
I:percmap F F 36 normal
I:percmap c c 38 normal
V:1
 z2 c'/c'/b/b/ _a/a/f/f/ e/e/d/d/ | c/ c2 z/ z z4 | z8 | z8 | z8 | z8 |] %6
V:2
 z6 !arpeggio![dfa]2 | !arpeggio![Ace]8 | z6 !arpeggio![dfa]2 | !arpeggio![Ace]8 | %4
 z6 !arpeggio![dfa]2 | !arpeggio![Ace]8 |] %6
V:3
 z8 | z2 c2 z2 c2 | z2 c2 z2 z2 | z2 c2 z2 c2 | z2 c2 z2 z2 | z8 |] %6
V:4
 x8 | F2 z z/ F/ F2 z z/ F/ | F2 z z/ F/ F>F c/(3F/F/ z/ z/ | F2 z z/ F/ F2 z z/ F/ | %4
 F2 z z/ F/ F>F c/(3F/F/ z/ z/ | x8 |] %6

